X: 16782
T: Harold's
R: polka
M: 2/4
K: Cmajor
|:gf ed|ce Gc|Bd AB|ce Ge|
gf ed|ce Gc|Bd AB|1 c2 ce:|2 c2 cB/A/||
|:Gc cd|ef gG|GG AG|dB AG|
Gc cd|ef ge/c/|GG AB|1 c2 cB/A/:|2 c2 ce||

